X: 995
T: Allie Crocker's
R: reel
M: 4/4
K: Gmajor
M: 2/4
D2|:G2 G2|!trill!G3 B|A>G FG|A>B cA|
B2 G2|G3 B|A>G FG|A>B cA:|
B>c d2|d3 B|ed cB|A>B c2|
A>B c2|c3 A|dc BA|G>A B2|!trill!G3 A/G/|!trill!F3 G/F/|
!trill!E3 F/E/|D3 E/D/|c2cd|c2BA|BG cA|!trill!F2 G2:|

